packages/ui-icons/svg/Line/address-book.svg

<svg viewBox="0 0 1920 1920" version="1.1" xmlns="http://www.w3.org/2000/svg">
    <path d="M1688.41176,1807.05882 L332.058824,1807.05882 L332.058824,1480.78431 L388.573529,1480.78431 C419.769647,1480.78431 445.088235,1455.48549 445.088235,1424.31373 C445.088235,1393.14196 419.769647,1367.84314 388.573529,1367.84314 L332.058824,1367.84314 L332.058824,1029.01961 L388.573529,1029.01961 C419.769647,1029.01961 445.088235,1003.72078 445.088235,972.54902 C445.088235,941.377255 419.769647,916.078431 388.573529,916.078431 L332.058824,916.078431 L332.058824,577.254902 L388.573529,577.254902 C419.769647,577.254902 445.088235,551.956078 445.088235,520.784314 C445.088235,489.612549 419.769647,464.313725 388.573529,464.313725 L332.058824,464.313725 L332.058824,338.823529 L332.058824,225.882353 L332.058824,112.941176 L1688.41176,112.941176 L1688.41176,1807.05882 Z M219.029412,0 L219.029412,225.882353 L219.029412,338.823529 L219.029412,464.313725 L162.514706,464.313725 C131.318588,464.313725 106,489.612549 106,520.784314 C106,551.956078 131.318588,577.254902 162.514706,577.254902 L219.029412,577.254902 L219.029412,916.078431 L162.514706,916.078431 C131.318588,916.078431 106,941.377255 106,972.54902 C106,1003.72078 131.318588,1029.01961 162.514706,1029.01961 L219.029412,1029.01961 L219.029412,1367.84314 L162.514706,1367.84314 C131.318588,1367.84314 106,1393.14196 106,1424.31373 C106,1455.48549 131.318588,1480.78431 162.514706,1480.78431 L219.029412,1480.78431 L219.029412,1920 L1801.44118,1920 L1801.44118,0 L219.029412,0 Z M1029,499 C1141.78175,499 1255.44392,590.71825 1255.44392,703.5 L1255.44392,703.5 L1255.44392,805.75 C1255.44392,850.74 1233.02149,893.17375 1208.27699,927.0185 C1249.07474,936.63 1274.50225,948.18425 1313.56175,965.0555 C1389.1245,997.7755 1438,1071.70225 1438,1153.50225 L1438,1153.50225 L1438,1294.3005 L1413.97125,1309.33125 C1344.339,1352.7875 1206.19925,1421.19275 1027.364,1421.19275 C1009.87925,1421.19275 992.19,1420.477 973.9895,1419.14775 C857.93575,1410.252 743.82475,1372.215 643.82425,1309.12675 L643.82425,1309.12675 L620,1294.096 L620,1154.11575 C620,1072.2135 669.163241,1001.40354 742.4955,966.487 C783.134393,947.137132 801.744473,936.399827 833.903342,927.0185 C808.647592,892.96925 792.520368,851.3535 792.520368,805.75 L792.520368,805.75 L792.520368,703.5 C792.520368,590.71825 916.21825,499 1029,499 Z M1018.41926,1009.61094 C938.357505,1011.04244 859.420505,1027.70919 783.142005,1060.73594 C746.127505,1076.68694 722.303255,1113.49694 722.303255,1154.49919 L722.303255,1154.49919 L722.303255,1237.42394 C802.262755,1283.02744 891.424755,1310.63494 981.813755,1317.58794 C1137.84726,1329.34669 1263.71701,1277.60819 1335.80326,1237.21944 L1335.80326,1237.21944 L1335.80326,1153.88569 C1335.80326,1112.88344 1311.16101,1075.76669 1273.12401,1059.30444 C1210.03576,1032.10594 1143.77776,1015.64369 1076.29276,1010.53119 C1063.10251,1009.50869 1050.01451,1010.01994 1036.82426,1009.81544 C1034.16576,1009.91769 1021.99801,1009.71319 1018.41926,1009.61094 Z M1029.15977,601.303255 C972.717766,601.303255 888.138287,647.213505 888.138287,703.553255 L888.138287,703.553255 L888.138287,805.803255 C888.138287,860.916005 970.979516,905.394755 1025.68327,907.337505 C1027.83052,907.337505 1029.97777,907.439755 1032.12502,907.439755 C1087.03327,905.803755 1160.21148,861.120505 1160.21148,805.803255 L1160.21148,805.803255 L1160.21148,703.553255 C1160.21148,647.213505 1085.60177,601.303255 1029.15977,601.303255 Z" stroke="none" stroke-width="1" fill-rule="evenodd"/>
</svg>

<svg viewBox="0 0 1920 1920" version="1.1" xmlns="http://www.w3.org/2000/svg">
    <path d="M1688.412 1807.059H332.059v-326.275h56.515c31.196 0 56.514-25.299 56.514-56.47 0-31.172-25.318-56.47-56.514-56.47h-56.515V1029.02h56.515c31.196 0 56.514-25.3 56.514-56.471 0-31.172-25.318-56.47-56.514-56.47h-56.515V577.254h56.515c31.196 0 56.514-25.299 56.514-56.47 0-31.172-25.318-56.471-56.514-56.471h-56.515V112.942h1356.353v1694.117zM219.029 0v464.314h-56.514c-31.196 0-56.515 25.299-56.515 56.47 0 31.172 25.319 56.47 56.515 56.47h56.514v338.824h-56.514c-31.196 0-56.515 25.3-56.515 56.471 0 31.172 25.319 56.47 56.515 56.47h56.514v338.824h-56.514c-31.196 0-56.515 25.299-56.515 56.47 0 31.172 25.319 56.471 56.515 56.471h56.514V1920h1582.412V0H219.03zm808.335 1421.193c-17.485 0-35.174-.716-53.375-2.045-116.053-8.896-230.164-46.933-330.165-110.021L620 1294.096v-139.98c0-81.902 49.163-152.712 122.495-187.629 40.64-19.35 59.25-30.087 91.408-39.468-25.255-34.05-41.383-75.665-41.383-121.269V703.5C792.52 590.718 916.218 499 1029 499s226.444 91.718 226.444 204.5v102.25c0 44.99-22.423 87.424-47.167 121.269 40.798 9.611 66.225 21.165 105.285 38.037 75.563 32.72 124.438 106.646 124.438 188.446v140.799l-24.029 15.03c-69.632 43.457-207.772 111.862-386.607 111.862zm-305.06-266.694v82.925c79.959 45.603 169.12 73.21 259.51 80.164 156.033 11.759 281.903-39.98 353.99-80.369v-83.333c0-41.003-24.643-78.12-62.68-94.582-63.088-27.198-129.346-43.66-196.831-48.773-13.19-1.022-26.278-.511-39.469-.716-2.658.103-14.826-.102-18.405-.204-80.061 1.431-158.998 18.098-235.277 51.125-37.014 15.95-60.839 52.76-60.839 93.763zm165.834-450.946v102.25c0 55.113 82.842 99.592 137.545 101.535 2.148 0 4.295.102 6.442.102 54.908-1.636 128.086-46.32 128.086-101.637v-102.25c0-56.34-74.61-102.25-131.051-102.25-56.442 0-141.022 45.91-141.022 102.25z" stroke="none" stroke-width="1" fill-rule="evenodd"/>
</svg>
